flaticon/coffee-shop/tea-cup-2.svg

<svg xmlns="http://www.w3.org/2000/svg" width="32" height="32" viewBox="0 0 24 24">
    <path d="M 22.84375 19.570312 L 17.722656 19.570312 L 17.722656 17.640625 C 18.433594 17.125 18.929688 16.339844 19.101562 15.429688 L 19.371094 13.871094 L 19.484375 13.261719 C 21.714844 12.925781 23.152344 9.640625 23.152344 4.875 C 23.152344 4.609375 22.976562 4.429688 22.707031 4.429688 L 19.726562 4.429688 C 19.699219 4.265625 19.667969 4.105469 19.636719 3.941406 L 19.148438 1.222656 C 19.101562 1 18.925781 0.867188 18.703125 0.867188 L 5.34375 0.867188 C 5.121094 0.867188 4.941406 1 4.898438 1.222656 L 4.40625 3.941406 C 3.828125 6.925781 3.875 9.953125 4.496094 12.890625 L 4.675781 13.738281 C 4.71875 14.046875 4.808594 14.449219 4.851562 14.804688 C 4.898438 15.027344 4.898438 15.25 4.941406 15.429688 C 5.105469 16.265625 5.578125 17.019531 6.234375 17.546875 L 6.234375 19.570312 L 1.15625 19.570312 C 0.535156 19.570312 0 20.058594 0 20.726562 C 0 21.261719 0.355469 21.664062 1.023438 21.796875 L 6.632812 22.242188 C 6.855469 22.242188 6.902344 22.332031 6.945312 22.417969 C 7.167969 22.863281 7.613281 23.132812 8.105469 23.132812 L 15.496094 23.132812 C 15.984375 23.132812 16.429688 22.863281 16.5625 22.417969 C 16.652344 22.285156 16.742188 22.242188 16.875 22.242188 L 22.976562 21.796875 L 23.019531 21.796875 C 23.644531 21.664062 24 21.261719 24 20.726562 C 24 20.105469 23.511719 19.570312 22.84375 19.570312 Z M 22.261719 5.320312 C 22.175781 8.972656 21.148438 11.734375 19.679688 12.265625 C 19.789062 11.65625 19.875 11.039062 19.933594 10.417969 C 19.933594 10.40625 19.9375 10.394531 19.9375 10.378906 C 19.953125 10.214844 19.96875 10.046875 19.980469 9.878906 C 19.980469 9.863281 19.984375 9.847656 19.984375 9.832031 C 20.085938 8.4375 20.0625 7.03125 19.898438 5.632812 C 19.886719 5.53125 19.871094 5.425781 19.859375 5.320312 Z M 15.585938 5.054688 L 16.921875 6.390625 L 16.921875 9.773438 L 14.25 9.773438 L 14.25 6.390625 Z M 5.789062 15.296875 C 5.789062 15.160156 5.742188 14.9375 5.699219 14.714844 C 5.65625 14.316406 5.566406 13.914062 5.519531 13.601562 L 5.34375 12.757812 C 4.765625 9.90625 4.71875 7.011719 5.253906 4.117188 L 5.699219 1.757812 L 5.699219 1.714844 L 15.140625 1.714844 L 15.140625 4.253906 L 13.492188 5.898438 C 13.402344 5.988281 13.359375 6.078125 13.359375 6.210938 L 13.359375 10.21875 C 13.359375 10.484375 13.535156 10.664062 13.804688 10.664062 L 17.367188 10.664062 C 17.632812 10.664062 17.8125 10.484375 17.8125 10.21875 L 17.8125 6.210938 C 17.8125 6.078125 17.765625 5.988281 17.675781 5.898438 L 16.03125 4.253906 L 16.03125 1.714844 L 18.300781 1.714844 L 18.746094 4.074219 C 19.28125 6.925781 19.234375 9.863281 18.65625 12.710938 L 18.433594 13.691406 L 18.167969 15.296875 C 17.988281 16.320312 17.144531 17.164062 16.117188 17.386719 C 13.359375 17.921875 10.597656 17.921875 7.835938 17.386719 C 7.492188 17.3125 7.164062 17.164062 6.878906 16.964844 C 6.863281 16.953125 6.847656 16.941406 6.832031 16.929688 C 6.292969 16.539062 5.902344 15.953125 5.789062 15.296875 Z M 7.125 18.101562 C 7.300781 18.1875 7.523438 18.234375 7.703125 18.277344 C 10.554688 18.855469 13.492188 18.855469 16.339844 18.277344 C 16.519531 18.234375 16.742188 18.1875 16.921875 18.101562 L 16.921875 19.570312 L 7.125 19.570312 Z M 22.976562 20.90625 L 16.921875 21.351562 C 16.476562 21.394531 16.117188 21.617188 15.894531 22.019531 C 15.808594 22.152344 15.671875 22.242188 15.539062 22.242188 L 8.105469 22.242188 C 7.96875 22.242188 7.835938 22.152344 7.746094 22.019531 C 7.523438 21.617188 7.167969 21.394531 6.722656 21.351562 L 1.113281 20.90625 C 0.890625 20.859375 0.890625 20.773438 0.890625 20.726562 C 0.890625 20.59375 1.023438 20.460938 1.15625 20.460938 L 22.929688 20.460938 C 23.066406 20.460938 23.199219 20.59375 23.199219 20.726562 C 23.199219 20.773438 23.199219 20.859375 22.976562 20.90625 Z M 22.976562 20.90625"/>
    <path d="M 6.632812 14.628906 C 6.679688 14.804688 6.679688 14.984375 6.722656 15.117188 C 6.8125 15.828125 7.390625 16.363281 8.058594 16.496094 C 8.105469 16.496094 8.105469 16.496094 8.148438 16.496094 C 8.371094 16.496094 8.550781 16.363281 8.683594 16.1875 C 8.726562 15.917969 8.550781 15.695312 8.328125 15.652344 C 7.96875 15.5625 7.703125 15.296875 7.660156 14.984375 C 7.613281 14.851562 7.613281 14.671875 7.570312 14.492188 L 7.570312 14.40625 C 7.480469 14.003906 7.390625 13.558594 7.347656 13.246094 C 7.300781 12.980469 7.035156 12.847656 6.8125 12.890625 C 6.546875 12.933594 6.410156 13.203125 6.457031 13.425781 C 6.5 13.691406 6.589844 14.136719 6.632812 14.539062 Z M 6.632812 14.628906"/>
</svg>

<svg xmlns="http://www.w3.org/2000/svg" width="32" height="32" viewBox="0 0 24 24">
    <path d="M22.844 19.57h-5.121v-1.93a3.522 3.522 0 0 0 1.379-2.21l.27-1.559.112-.61c2.23-.335 3.668-3.62 3.668-8.386 0-.266-.175-.445-.445-.445h-2.98c-.028-.164-.059-.325-.09-.489l-.489-2.718a.435.435 0 0 0-.445-.356H5.343c-.222 0-.402.133-.445.356L4.406 3.94a22.48 22.48 0 0 0 .09 8.95l.18.847c.043.309.133.711.176 1.067.046.222.046.445.09.625a3.64 3.64 0 0 0 1.292 2.117v2.023H1.156C.536 19.57 0 20.06 0 20.727c0 .535.355.937 1.023 1.07l5.61.445c.222 0 .27.09.312.176.223.445.668.715 1.16.715h7.391c.488 0 .934-.27 1.066-.715.09-.133.18-.176.313-.176l6.102-.445h.043c.625-.133.98-.535.98-1.07 0-.622-.488-1.157-1.156-1.157zm-.582-14.25c-.086 3.653-1.114 6.414-2.582 6.946.11-.61.195-1.227.254-1.848 0-.012.003-.023.003-.04.016-.163.032-.331.043-.5 0-.015.004-.03.004-.046.102-1.395.078-2.8-.086-4.2-.011-.1-.027-.206-.039-.312zm-6.676-.265l1.336 1.336v3.382H14.25V6.391zM5.789 15.297c0-.137-.047-.36-.09-.582-.043-.399-.133-.8-.18-1.113l-.175-.844a22.558 22.558 0 0 1-.09-8.64l.445-2.36v-.043h9.442v2.539l-1.649 1.644a.405.405 0 0 0-.133.313v4.008c0 .265.176.445.446.445h3.562c.266 0 .445-.18.445-.445V6.21a.408.408 0 0 0-.136-.313L16.03 4.254v-2.54h2.27l.445 2.36c.535 2.852.488 5.79-.09 8.637l-.222.98-.266 1.606c-.18 1.023-1.023 1.867-2.05 2.09-2.759.535-5.52.535-8.282 0a2.668 2.668 0 0 1-.957-.422l-.047-.035c-.539-.39-.93-.977-1.043-1.633zm1.336 2.805c.176.085.398.132.578.175 2.852.578 5.79.578 8.637 0 .18-.043.402-.09.582-.175v1.468H7.125zm15.852 2.804l-6.055.446a1.263 1.263 0 0 0-1.027.668c-.086.132-.223.222-.356.222H8.105c-.136 0-.27-.09-.359-.222a1.257 1.257 0 0 0-1.023-.668l-5.61-.446c-.222-.047-.222-.133-.222-.18 0-.132.132-.265.265-.265H22.93c.136 0 .27.133.27.266 0 .046 0 .132-.223.18zm0 0"/>
    <path d="M6.633 14.629c.047.176.047.355.09.488.09.711.668 1.246 1.336 1.38h.09c.222 0 .402-.134.535-.31a.461.461 0 0 0-.356-.535c-.36-.09-.625-.355-.668-.668-.047-.132-.047-.312-.09-.492v-.086a15.93 15.93 0 0 1-.222-1.16c-.047-.266-.313-.398-.535-.355-.266.043-.403.312-.356.535.043.265.133.71.176 1.113zm0 0"/>
</svg>
